static/img/kroki/89438864331dd667bf6e15788730bf2b.svg

<?xml version="1.0" encoding="us-ascii" standalone="no"?><svg xmlns="http://www.w3.org/2000/svg" xmlns:xlink="http://www.w3.org/1999/xlink" contentStyleType="text/css" height="374px" preserveAspectRatio="none" style="width:349px;height:374px;" version="1.1" viewBox="0 0 349 374" width="349px" zoomAndPan="magnify"><defs/><g><!--class instance--><g id="elem_instance"><rect codeLine="23" fill="#3D176E" height="39.7891" id="instance" rx="2.5" ry="2.5" style="stroke:#000D19;stroke-width:0.5;" width="112" x="229.5" y="167.79"/><ellipse cx="244.5" cy="187.6845" fill="#ADD1B2" rx="11" ry="11" style="stroke:#181818;stroke-width:1.0;"/><path d="M247.4688,193.3252 Q246.8906,193.622 246.25,193.7627 Q245.6094,193.9189 244.9063,193.9189 Q242.4063,193.9189 241.0781,192.2783 Q239.7656,190.622 239.7656,187.497 Q239.7656,184.372 241.0781,182.7158 Q242.4063,181.0595 244.9063,181.0595 Q245.6094,181.0595 246.25,181.2158 Q246.9063,181.372 247.4688,181.6689 L247.4688,184.3877 Q246.8438,183.8095 246.25,183.5439 Q245.6563,183.2627 245.0313,183.2627 Q243.6875,183.2627 243,184.3408 Q242.3125,185.4033 242.3125,187.497 Q242.3125,189.5908 243,190.6689 Q243.6875,191.7314 245.0313,191.7314 Q245.6563,191.7314 246.25,191.4658 Q246.8438,191.1845 247.4688,190.6064 L247.4688,193.3252 Z " fill="#000000"/><text fill="#D9B8FF" font-family="Helvetica" font-size="17" lengthAdjust="spacing" textLength="70" x="263.5" y="193.5698">instance</text></g><!--class onprem_instance--><g id="elem_onprem_instance"><rect codeLine="26" fill="#3D176E" height="39.7891" id="onprem_instance" rx="2.5" ry="2.5" style="stroke:#000D19;stroke-width:0.5;" width="186" x="42.5" y="328.58"/><ellipse cx="57.5" cy="348.4745" fill="#ADD1B2" rx="11" ry="11" style="stroke:#181818;stroke-width:1.0;"/><path d="M60.4688,354.1152 Q59.8906,354.412 59.25,354.5527 Q58.6094,354.7089 57.9063,354.7089 Q55.4063,354.7089 54.0781,353.0683 Q52.7656,351.412 52.7656,348.287 Q52.7656,345.162 54.0781,343.5058 Q55.4063,341.8495 57.9063,341.8495 Q58.6094,341.8495 59.25,342.0058 Q59.9063,342.162 60.4688,342.4589 L60.4688,345.1777 Q59.8438,344.5995 59.25,344.3339 Q58.6563,344.0527 58.0313,344.0527 Q56.6875,344.0527 56,345.1308 Q55.3125,346.1933 55.3125,348.287 Q55.3125,350.3808 56,351.4589 Q56.6875,352.5214 58.0313,352.5214 Q58.6563,352.5214 59.25,352.2558 Q59.8438,351.9745 60.4688,351.3964 L60.4688,354.1152 Z " fill="#000000"/><text fill="#D9B8FF" font-family="Helvetica" font-size="17" lengthAdjust="spacing" textLength="144" x="76.5" y="354.3598">onprem_instance</text></g><!--class onprem_resource--><g id="elem_onprem_resource"><rect codeLine="29" fill="#3D176E" height="39.7891" id="onprem_resource" rx="2.5" ry="2.5" style="stroke:#000D19;stroke-width:0.5;" width="187" x="7" y="167.79"/><ellipse cx="22" cy="187.6845" fill="#ADD1B2" rx="11" ry="11" style="stroke:#181818;stroke-width:1.0;"/><path d="M24.9688,193.3252 Q24.3906,193.622 23.75,193.7627 Q23.1094,193.9189 22.4063,193.9189 Q19.9063,193.9189 18.5781,192.2783 Q17.2656,190.622 17.2656,187.497 Q17.2656,184.372 18.5781,182.7158 Q19.9063,181.0595 22.4063,181.0595 Q23.1094,181.0595 23.75,181.2158 Q24.4063,181.372 24.9688,181.6689 L24.9688,184.3877 Q24.3438,183.8095 23.75,183.5439 Q23.1563,183.2627 22.5313,183.2627 Q21.1875,183.2627 20.5,184.3408 Q19.8125,185.4033 19.8125,187.497 Q19.8125,189.5908 20.5,190.6689 Q21.1875,191.7314 22.5313,191.7314 Q23.1563,191.7314 23.75,191.4658 Q24.3438,191.1845 24.9688,190.6064 L24.9688,193.3252 Z " fill="#000000"/><text fill="#D9B8FF" font-family="Helvetica" font-size="17" lengthAdjust="spacing" textLength="145" x="41" y="193.5698">onprem_resource</text></g><!--class resource--><g id="elem_resource"><rect codeLine="32" fill="#3D176E" height="39.7891" id="resource" rx="2.5" ry="2.5" style="stroke:#000D19;stroke-width:0.5;" width="113" x="229" y="7"/><ellipse cx="244" cy="26.8945" fill="#ADD1B2" rx="11" ry="11" style="stroke:#181818;stroke-width:1.0;"/><path d="M246.9688,32.5352 Q246.3906,32.832 245.75,32.9727 Q245.1094,33.1289 244.4063,33.1289 Q241.9063,33.1289 240.5781,31.4883 Q239.2656,29.832 239.2656,26.707 Q239.2656,23.582 240.5781,21.9258 Q241.9063,20.2695 244.4063,20.2695 Q245.1094,20.2695 245.75,20.4258 Q246.4063,20.582 246.9688,20.8789 L246.9688,23.5977 Q246.3438,23.0195 245.75,22.7539 Q245.1563,22.4727 244.5313,22.4727 Q243.1875,22.4727 242.5,23.5508 Q241.8125,24.6133 241.8125,26.707 Q241.8125,28.8008 242.5,29.8789 Q243.1875,30.9414 244.5313,30.9414 Q245.1563,30.9414 245.75,30.6758 Q246.3438,30.3945 246.9688,29.8164 L246.9688,32.5352 Z " fill="#000000"/><text fill="#D9B8FF" font-family="Helvetica" font-size="17" lengthAdjust="spacing" textLength="71" x="263" y="32.7798">resource</text></g><!--reverse link resource to instance--><g id="link_resource_instance"><path codeLine="35" d="M285.5,65.05 C285.5,95.57 285.5,136.9 285.5,167.46 " fill="none" id="resource-backto-instance" style="stroke:#FFAF37;stroke-width:2.0;"/><polygon fill="none" points="285.5,47.05,279.5,65.05,291.5,65.05,285.5,47.05" style="stroke:#FFAF37;stroke-width:2.0;"/></g><!--reverse link instance to onprem_instance--><g id="link_instance_onprem_instance"><path codeLine="36" d="M255.0495,220.925 C226.2195,251.445 182.53,297.69 153.66,328.25 " fill="none" id="instance-backto-onprem_instance" style="stroke:#FFAF37;stroke-width:2.0;"/><polygon fill="none" points="267.41,207.84,250.6878,216.8049,259.4112,225.0452,267.41,207.84" style="stroke:#FFAF37;stroke-width:2.0;"/></g><!--reverse link onprem_resource to onprem_instance--><g id="link_onprem_resource_onprem_instance"><path codeLine="37" d="M108.5961,225.4177 C115.3261,255.9377 124.53,297.69 131.26,328.25 " fill="none" id="onprem_resource-backto-onprem_instance" style="stroke:#FFAF37;stroke-width:2.0;"/><polygon fill="none" points="104.72,207.84,102.7368,226.7097,114.4553,224.1257,104.72,207.84" style="stroke:#FFAF37;stroke-width:2.0;"/></g><!--SRC=[XP3DReCm48JlVWfBEID1evOWzP8WLUqbgfhUAuFNmG9ij3QDqfztRoafCYOXHyzycfbr8JbGg1jxf3NK6Q0XffIgOSXgkaRKXrHN6kb222QMiMy-Q6Ml0bjM0ts4wXsip9bFl1OoBnKOGsySQyFoSe-wLRoFjyYK-RL0MOTAAsRCsbgKMMl16SEJR2M4J_gXYoMFuZkOO1evu0a9mv17YOzShPgzUo1syWDev7xQLbkOp9nK_56pApl26JavzD-_kF6PSIxLdjuwsak_2HNWIDyLZEj3HmjM6RV6M43GzjX0EhaAaXKNyLduwH9Cykxhg5J6CfK3_IJa-wHfrI3KRpCMWj4jZgsnDhpklu8W66h84DhhNXNnyyzJFm00]--></g></svg>

<svg xmlns="http://www.w3.org/2000/svg" width="349" height="374" viewBox="0 0 349 374"><rect width="112" height="39.789" x="229.5" y="167.79" fill="#3D176E" rx="2.5" ry="2.5" style="stroke:#000d19;stroke-width:.5"/><circle cx="244.5" cy="187.685" r="11" fill="#ADD1B2" style="stroke:#181818;stroke-width:1"/><path d="M247.469 193.325q-.578.297-1.219.438-.64.156-1.344.156-2.5 0-3.828-1.64-1.312-1.657-1.312-4.782t1.312-4.781q1.328-1.656 3.828-1.656.703 0 1.344.156.656.156 1.219.453v2.719q-.625-.578-1.219-.844-.594-.281-1.219-.281-1.344 0-2.031 1.078-.687 1.062-.687 3.156t.687 3.172q.688 1.062 2.031 1.062.625 0 1.219-.265.594-.281 1.219-.86z"/><text x="263.5" y="193.57" fill="#D9B8FF" font-family="Helvetica" font-size="17" textLength="70">instance</text><rect width="186" height="39.789" x="42.5" y="328.58" fill="#3D176E" rx="2.5" ry="2.5" style="stroke:#000d19;stroke-width:.5"/><circle cx="57.5" cy="348.474" r="11" fill="#ADD1B2" style="stroke:#181818;stroke-width:1"/><path d="M60.469 354.115q-.578.297-1.219.438-.64.156-1.344.156-2.5 0-3.828-1.64-1.312-1.657-1.312-4.782t1.312-4.781q1.328-1.656 3.828-1.656.703 0 1.344.156.656.156 1.219.453v2.719q-.625-.579-1.219-.844-.594-.281-1.219-.281-1.343 0-2.031 1.078-.687 1.062-.687 3.156t.687 3.172q.688 1.062 2.031 1.062.625 0 1.219-.265.594-.281 1.219-.86z"/><text x="76.5" y="354.36" fill="#D9B8FF" font-family="Helvetica" font-size="17" textLength="144">onprem_instance</text><rect width="187" height="39.789" x="7" y="167.79" fill="#3D176E" rx="2.5" ry="2.5" style="stroke:#000d19;stroke-width:.5"/><circle cx="22" cy="187.685" r="11" fill="#ADD1B2" style="stroke:#181818;stroke-width:1"/><path d="M24.969 193.325q-.578.297-1.219.438-.64.156-1.344.156-2.5 0-3.828-1.64-1.312-1.657-1.312-4.782t1.312-4.781q1.328-1.656 3.828-1.656.703 0 1.344.156.656.156 1.219.453v2.719q-.625-.578-1.219-.844-.594-.281-1.219-.281-1.343 0-2.031 1.078-.687 1.062-.687 3.156t.687 3.172q.688 1.062 2.031 1.062.625 0 1.219-.265.594-.281 1.219-.86z"/><text x="41" y="193.57" fill="#D9B8FF" font-family="Helvetica" font-size="17" textLength="145">onprem_resource</text><rect width="113" height="39.789" x="229" y="7" fill="#3D176E" rx="2.5" ry="2.5" style="stroke:#000d19;stroke-width:.5"/><circle cx="244" cy="26.895" r="11" fill="#ADD1B2" style="stroke:#181818;stroke-width:1"/><path d="M246.969 32.535q-.578.297-1.219.438-.64.156-1.344.156-2.5 0-3.828-1.64-1.312-1.657-1.312-4.782t1.312-4.781q1.328-1.656 3.828-1.656.703 0 1.344.156.656.156 1.219.453v2.719q-.625-.578-1.219-.844-.594-.281-1.219-.281-1.344 0-2.031 1.078-.687 1.062-.687 3.156t.687 3.172q.688 1.062 2.031 1.062.625 0 1.219-.265.594-.281 1.219-.86z"/><text x="263" y="32.78" fill="#D9B8FF" font-family="Helvetica" font-size="17" textLength="71">resource</text><path fill="none" d="M285.5 65.05v102.41m0-120.41-6 18h12z" style="stroke:#ffaf37;stroke-width:2"/><g fill="none"><path d="M255.05 220.925c-28.83 30.52-72.52 76.765-101.39 107.325" style="stroke:#ffaf37;stroke-width:2"/><path d="m267.41 207.84-16.722 8.965 8.723 8.24z" style="stroke:#ffaf37;stroke-width:2"/></g><path fill="none" d="M108.596 225.418c6.73 30.52 15.934 72.272 22.664 102.832m-26.54-120.41-1.983 18.87 11.718-2.584z" style="stroke:#ffaf37;stroke-width:2"/></svg>
